X:939
T:The Barndoor Jig.
B:O'Neill's 939
N:"collected by F. O'Neill."
Z:Transcribed by Tom Keays (htkeays@mailbox.syr.edu)
Z:abc 1.6
M:6/8
R:Jig
L:1/8
K:A
EAA AGA|Bcd e2 f|agfg ege|dBA G2 A/G/|
EAA AGA|Bcd e2 f|gfg edB|cAA A3 :|
aea aea|aga b2 a|gdg gdg|gdg g2 f/g/|
aea aea|aga b2 a|dfd dcB|cAA A2 z :|
